; G-Code generated by Simplify3D(R) Version 4.0.0
; May 23, 2018 at 9:36:17 AM
; Settings Summary
;   processName,Process1
;   applyToModels,CuteOcto
;   profileName,medium_profile
;   profileVersion,2017-11-10 14:09:56
;   baseProfile,SeeMeCNC Orion (modified)
;   printMaterial,PLA
;   printQuality,Medium
;   printExtruders,
;   extruderName,Primary Extruder
;   extruderToolheadNumber,0
;   extruderDiameter,0.5
;   extruderAutoWidth,1
;   extruderWidth,0.6
;   extrusionMultiplier,1
;   extruderUseRetract,1
;   extruderRetractionDistance,6.4
;   extruderExtraRestartDistance,-0.6
;   extruderRetractionZLift,0.5
;   extruderRetractionSpeed,3900
;   extruderUseCoasting,0
;   extruderCoastingDistance,1.4
;   extruderUseWipe,0
;   extruderWipeDistance,2
;   primaryExtruder,0
;   layerHeight,0.25
;   topSolidLayers,4
;   bottomSolidLayers,0
;   perimeterOutlines,1
;   printPerimetersInsideOut,1
;   startPointOption,2
;   startPointOriginX,0
;   startPointOriginY,0
;   sequentialIslands,0
;   spiralVaseMode,1
;   firstLayerHeightPercentage,75
;   firstLayerWidthPercentage,75
;   firstLayerUnderspeed,0.35
;   useRaft,0
;   raftExtruder,0
;   raftTopLayers,3
;   raftBaseLayers,2
;   raftOffset,3
;   raftSeparationDistance,0.14
;   raftTopInfill,100
;   aboveRaftSpeedMultiplier,0.3
;   useSkirt,0
;   skirtExtruder,0
;   skirtLayers,1
;   skirtOutlines,3
;   skirtOffset,2
;   usePrimePillar,0
;   primePillarExtruder,999
;   primePillarWidth,12
;   primePillarLocation,7
;   primePillarSpeedMultiplier,1
;   useOozeShield,0
;   oozeShieldExtruder,999
;   oozeShieldOffset,2
;   oozeShieldOutlines,1
;   oozeShieldSidewallShape,1
;   oozeShieldSidewallAngle,30
;   oozeShieldSpeedMultiplier,1
;   infillExtruder,0
;   internalInfillPattern,Fast Honeycomb
;   externalInfillPattern,Rectilinear
;   infillPercentage,0
;   outlineOverlapPercentage,20
;   infillExtrusionWidthPercentage,150
;   minInfillLength,5
;   infillLayerInterval,1
;   internalInfillAngles,0
;   overlapInternalInfillAngles,0
;   externalInfillAngles,45,-45
;   generateSupport,0
;   supportExtruder,0
;   supportInfillPercentage,30
;   supportExtraInflation,0
;   supportBaseLayers,0
;   denseSupportExtruder,0
;   denseSupportLayers,0
;   denseSupportInfillPercentage,70
;   supportLayerInterval,1
;   supportHorizontalPartOffset,0.3
;   supportUpperSeparationLayers,1
;   supportLowerSeparationLayers,1
;   supportType,0
;   supportGridSpacing,4
;   maxOverhangAngle,45
;   supportAngles,0
;   temperatureName,Primary Extruder,Heated Bed
;   temperatureNumber,0,1
;   temperatureSetpointCount,2,1
;   temperatureSetpointLayers,1,2,1
;   temperatureSetpointTemperatures,220,218,60
;   temperatureStabilizeAtStartup,1,0
;   temperatureHeatedBed,0,1
;   temperatureRelayBetweenLayers,0,0
;   temperatureRelayBetweenLoops,0,0
;   fanLayers,1
;   fanSpeeds,100
;   blipFanToFullPower,0
;   adjustSpeedForCooling,1
;   minSpeedLayerTime,15
;   minCoolingSpeedSlowdown,20
;   increaseFanForCooling,0
;   minFanLayerTime,60
;   maxCoolingFanSpeed,100
;   increaseFanForBridging,0
;   bridgingFanSpeed,100
;   use5D,1
;   relativeEdistances,0
;   allowEaxisZeroing,1
;   independentExtruderAxes,0
;   includeM10123,0
;   stickySupport,1
;   applyToolheadOffsets,0
;   gcodeXoffset,0
;   gcodeYoffset,0
;   gcodeZoffset,0
;   overrideMachineDefinition,1
;   machineTypeOverride,1
;   strokeXoverride,105
;   strokeYoverride,105
;   strokeZoverride,155
;   originOffsetXoverride,52.5
;   originOffsetYoverride,52.5
;   originOffsetZoverride,0
;   homeXdirOverride,0
;   homeYdirOverride,0
;   homeZdirOverride,1
;   flipXoverride,1
;   flipYoverride,-1
;   flipZoverride,1
;   toolheadOffsets,0,0|0,0|0,0|0,0|0,0|0,0
;   overrideFirmwareConfiguration,1
;   firmwareTypeOverride,RepRap (Marlin/Repetier/Sprinter)
;   GPXconfigOverride,r2
;   baudRateOverride,250000
;   overridePrinterModels,1
;   printerModelsOverride
;   startingGcode,G28 ; home all axes,,;M721 S1.0	;// ??(?)??,;M722 S1.0	;// ???(W)??,;M723 S1.0	;// ????(H)??
;   layerChangeGcode,
;   retractionGcode,
;   toolChangeGcode,
;   endingGcode,M104 S0 ; turn off temperature,M140 S0 ; turn off bed,G91,G1 Z10 E-5.0 F12000,G90,G28 ,M84     ; disable motors
;   exportFileFormat,gcode
;   celebration,0
;   celebrationSong,Random Song
;   postProcessing,
;   defaultSpeed,1800
;   outlineUnderspeed,0.7
;   solidInfillUnderspeed,0.7
;   supportUnderspeed,0.8
;   rapidXYspeed,9000
;   rapidZspeed,9000
;   minBridgingArea,50
;   bridgingExtraInflation,0
;   bridgingExtrusionMultiplier,0.95
;   bridgingSpeedMultiplier,0.7
;   useFixedBridgingAngle,0
;   fixedBridgingAngle,0
;   applyBridgingToPerimeters,0
;   filamentDiameters,1.75|1.75|1.75|1.75|1.75|1.75
;   filamentPricesPerKg,25|25|25|25|25|25
;   filamentDensities,1.25|1.25|1.25|1.25|1.25|1.25
;   useMinPrintHeight,0
;   minPrintHeight,0
;   useMaxPrintHeight,0
;   maxPrintHeight,0
;   useDiaphragm,0
;   diaphragmLayerInterval,20
;   robustSlicing,1
;   mergeAllIntoSolid,0
;   onlyRetractWhenCrossingOutline,0
;   retractBetweenLayers,0
;   useRetractionMinTravel,1
;   retractionMinTravel,10
;   retractWhileWiping,0
;   onlyWipeOutlines,1
;   avoidCrossingOutline,1
;   maxMovementDetourFactor,3
;   toolChangeRetractionDistance,12
;   toolChangeExtraRestartDistance,-0.5
;   toolChangeRetractionSpeed,600
;   externalThinWallType,0
;   internalThinWallType,2
;   thinWallAllowedOverlapPercentage,15
;   singleExtrusionMinLength,1
;   singleExtrusionMinPrintingWidthPercentage,50
;   singleExtrusionMaxPrintingWidthPercentage,200
;   singleExtrusionEndpointExtension,0.2
;   horizontalSizeCompensation,0
G90
M82
M106 S255
;M140 S60
M104 S240 T0
M109 S240 T0 ;comment out
G28 ; home all axes
;M721 S1.0	;// ??(?)??
;M722 S1.0	;// ???(W)??
;M723 S1.0	;// ????(H)??
G92 E0
G1 E-6.4000 F3900
G1 Z0.500 F9000
; process Process1
; layer 1, Z = 0.188
T0
; tool H0.250 W0.450
; outer perimeter
G1 X-1.423 Y-5.302 F9000
G1 Z0.000 F9000
G1 E-0.6000 F1170
G92 E0
G1 X-1.178 Y-5.414 Z0.000 E0.0063 F405
G1 X-0.939 Y-5.576 Z0.000 E0.0131
G1 X-0.693 Y-5.790 Z0.001 E0.0208
G1 X-0.488 Y-6.006 Z0.002 E0.0278
G1 X-0.300 Y-6.235 Z0.002 E0.0349
G1 X0.378 Y-7.149 Z0.003 E0.0622
G1 X0.749 Y-7.560 Z0.005 E0.0755
G1 X1.116 Y-7.907 Z0.006 E0.0878
G1 X1.537 Y-8.267 Z0.007 E0.1013
G1 X2.214 Y-8.785 Z0.008 E0.1222
G1 X2.516 Y-8.985 Z0.009 E0.1311
G1 X2.862 Y-9.184 Z0.010 E0.1410
G1 X3.121 Y-9.310 Z0.011 E0.1481
G1 X3.497 Y-9.457 Z0.011 E0.1582
G1 X3.890 Y-9.569 Z0.012 E0.1684
G1 X4.156 Y-9.615 Z0.013 E0.1752
G1 X4.369 Y-9.610 Z0.013 E0.1805
G1 X4.456 Y-9.583 Z0.014 E0.1828
G1 X4.551 Y-9.506 Z0.014 E0.1859
G1 X4.582 Y-9.443 Z0.014 E0.1877
G1 X4.596 Y-9.373 Z0.014 E0.1895
G1 X4.595 Y-9.238 Z0.014 E0.1929
G1 X4.565 Y-9.076 Z0.015 E0.1970
G1 X4.457 Y-8.782 Z0.015 E0.2049
G1 X4.225 Y-8.374 Z0.016 E0.2169
G1 X4.010 Y-8.084 Z0.016 E0.2261
G1 X3.661 Y-7.691 Z0.017 E0.2396
G1 X2.857 Y-6.876 Z0.018 E0.2692
G1 X2.673 Y-6.653 Z0.020 E0.2767
G1 X2.542 Y-6.452 Z0.021 E0.2830
G1 X2.397 Y-6.115 Z0.021 E0.2926
G1 X2.339 Y-5.832 Z0.022 E0.3001
G1 X2.343 Y-5.445 Z0.022 E0.3103
G1 X2.405 Y-5.221 Z0.023 E0.3164
G1 X2.500 Y-5.040 Z0.024 E0.3218
G1 X2.588 Y-4.927 Z0.024 E0.3256
G1 X2.794 Y-4.751 Z0.024 E0.3328
G1 X3.088 Y-4.619 Z0.025 E0.3413
G1 X3.414 Y-4.555 Z0.025 E0.3501
G1 X3.715 Y-4.535 Z0.026 E0.3582
G1 X4.065 Y-4.549 Z0.026 E0.3676
G1 X5.259 Y-4.731 Z0.027 E0.4002
G1 X5.937 Y-4.777 Z0.029 E0.4187
G1 X6.577 Y-4.755 Z0.031 E0.4362
G1 X7.181 Y-4.704 Z0.032 E0.4529
G1 X7.753 Y-4.628 Z0.033 E0.4688
G1 X8.097 Y-4.565 Z0.034 E0.4785
G1 X8.646 Y-4.419 Z0.035 E0.4943
G1 X8.978 Y-4.298 Z0.036 E0.5042
G1 X9.231 Y-4.184 Z0.036 E0.5120
G1 X9.548 Y-4.012 Z0.037 E0.5221
G1 X9.776 Y-3.859 Z0.038 E0.5298
G1 X9.865 Y-3.785 Z0.038 E0.5331
G1 X9.971 Y-3.671 Z0.038 E0.5375
G1 X10.014 Y-3.598 Z0.039 E0.5399
G1 X10.042 Y-3.513 Z0.039 E0.5424
G1 X10.042 Y-3.505 Z0.039 E0.5426
G1 X10.021 Y-3.424 Z0.039 E0.5450
G1 X9.991 Y-3.373 Z0.039 E0.5466
G1 X9.849 Y-3.233 Z0.039 E0.5523
G1 X9.587 Y-3.073 Z0.040 E0.5610
G1 X9.382 Y-2.990 Z0.040 E0.5673
G1 X9.150 Y-2.922 Z0.040 E0.5742
G1 X8.711 Y-2.843 Z0.041 E0.5870
G1 X8.322 Y-2.813 Z0.042 E0.5981
G1 X7.011 Y-2.810 Z0.042 E0.6361
G1 X6.724 Y-2.785 Z0.045 E0.6445
G1 X6.489 Y-2.738 Z0.045 E0.6515
G1 X6.226 Y-2.639 Z0.046 E0.6597
G1 X6.048 Y-2.538 Z0.046 E0.6657
G1 X5.915 Y-2.441 Z0.047 E0.6705
G1 X5.712 Y-2.254 Z0.047 E0.6786
G1 X5.506 Y-1.970 Z0.048 E0.6889
G1 X5.426 Y-1.765 Z0.048 E0.6954
G1 X5.398 Y-1.554 Z0.049 E0.7016
G1 X5.438 Y-1.296 Z0.049 E0.7094
G1 X5.558 Y-1.031 Z0.050 E0.7180
G1 X5.725 Y-0.787 Z0.050 E0.7268
G1 X5.869 Y-0.619 Z0.051 E0.7334
G1 X6.207 Y-0.295 Z0.051 E0.7473
G1 X7.157 Y0.414 Z0.052 E0.7831
G1 X7.542 Y0.741 Z0.054 E0.7984
G1 X7.723 Y0.916 Z0.055 E0.8060
G1 X8.293 Y1.540 Z0.056 E0.8318
G1 X8.556 Y1.862 Z0.057 E0.8445
G1 X8.933 Y2.363 Z0.058 E0.8638
G1 X9.127 Y2.656 Z0.059 E0.8746
G1 X9.286 Y2.931 Z0.060 E0.8844
G1 X9.426 Y3.212 Z0.060 E0.8941
G1 X9.577 Y3.583 Z0.061 E0.9066
G1 X9.668 Y3.869 Z0.062 E0.9159
G1 X9.746 Y4.234 Z0.062 E0.9276
G1 X9.760 Y4.432 Z0.063 E0.9338
G1 X9.733 Y4.584 Z0.063 E0.9386
G1 X9.704 Y4.635 Z0.063 E0.9404
G1 X9.653 Y4.685 Z0.064 E0.9427
G1 X9.615 Y4.708 Z0.064 E0.9441
G1 X9.517 Y4.732 Z0.064 E0.9472
G1 X9.402 Y4.735 Z0.064 E0.9508
G1 X9.234 Y4.708 Z0.064 E0.9562
G1 X8.946 Y4.606 Z0.065 E0.9658
G1 X8.550 Y4.386 Z0.065 E0.9801
G1 X8.103 Y4.046 Z0.066 E0.9980
G1 X7.677 Y3.646 Z0.067 E1.0166
G1 X7.097 Y3.066 Z0.068 E1.0429
G1 X6.865 Y2.865 Z0.070 E1.0528
G1 X6.642 Y2.711 Z0.070 E1.0615
G1 X6.351 Y2.566 Z0.071 E1.0720
G1 X6.029 Y2.484 Z0.071 E1.0827
G1 X5.729 Y2.469 Z0.072 E1.0925
G1 X5.406 Y2.527 Z0.072 E1.1031
G1 X5.168 Y2.647 Z0.073 E1.1118
G1 X4.985 Y2.810 Z0.074 E1.1198
G1 X4.899 Y2.925 Z0.074 E1.1245
G1 X4.768 Y3.201 Z0.074 E1.1345
G1 X4.724 Y3.371 Z0.075 E1.1403
G1 X4.688 Y3.621 Z0.075 E1.1485
G1 X4.678 Y3.918 Z0.076 E1.1583
G1 X4.700 Y4.171 Z0.076 E1.1667
G1 X4.736 Y4.345 Z0.077 E1.1725
G1 X4.863 Y4.691 Z0.077 E1.1847
G1 X4.945 Y4.967 Z0.078 E1.1943
G1 X5.078 Y5.597 Z0.078 E1.2157
G1 X5.133 Y5.973 Z0.079 E1.2284
G1 X5.139 Y6.104 Z0.080 E1.2328
G1 X5.127 Y6.237 Z0.080 E1.2372
G1 X5.096 Y6.335 Z0.081 E1.2407
G1 X4.912 Y6.260 Z0.081 E1.2473
G1 X4.714 Y6.205 Z0.081 E1.2542
G1 X4.457 Y6.161 Z0.082 E1.2630
G1 X4.341 Y6.163 Z0.082 E1.2669
G1 X4.135 Y6.198 Z0.082 E1.2739
G1 X3.884 Y6.298 Z0.083 E1.2830
G1 X3.330 Y6.279 Z0.083 E1.3018
G1 X3.007 Y6.301 Z0.084 E1.3128
G1 X2.868 Y6.330 Z0.085 E1.3176
G1 X2.739 Y6.399 Z0.085 E1.3226
G1 X2.372 Y5.947 Z0.085 E1.3425
G1 X2.079 Y5.694 Z0.086 E1.3557
G1 X1.895 Y5.595 Z0.087 E1.3629
G1 X1.722 Y5.553 Z0.087 E1.3690
G1 X1.553 Y5.556 Z0.088 E1.3748
G1 X1.375 Y5.602 Z0.088 E1.3812
G1 X1.196 Y5.686 Z0.088 E1.3880
G1 X0.974 Y5.831 Z0.089 E1.3971
G1 X0.805 Y5.969 Z0.089 E1.4047
G1 X0.558 Y6.209 Z0.090 E1.4166
G1 X0.229 Y6.609 Z0.090 E1.4346
G1 X-0.344 Y7.386 Z0.091 E1.4684
G1 X-0.597 Y7.681 Z0.093 E1.4820
G1 X-0.835 Y7.926 Z0.094 E1.4940
G1 X-1.427 Y8.455 Z0.094 E1.5221
G1 X-1.708 Y8.686 Z0.096 E1.5350
G1 X-2.236 Y9.084 Z0.097 E1.5585
G1 X-2.510 Y9.265 Z0.098 E1.5702
G1 X-2.797 Y9.431 Z0.098 E1.5821
G1 X-3.212 Y9.629 Z0.099 E1.5986
G1 X-3.473 Y9.728 Z0.100 E1.6086
G1 X-3.828 Y9.834 Z0.100 E1.6219
G1 X-4.085 Y9.887 Z0.101 E1.6314
G1 X-4.286 Y9.901 Z0.102 E1.6386
G1 X-4.458 Y9.869 Z0.102 E1.6450
G1 X-4.478 Y9.859 Z0.102 E1.6458
G1 X-4.547 Y9.794 Z0.102 E1.6492
G1 X-4.578 Y9.741 Z0.102 E1.6514
G1 X-4.589 Y9.700 Z0.103 E1.6530
G1 X-4.599 Y9.602 Z0.103 E1.6565
G1 X-4.595 Y9.516 Z0.103 E1.6596
G1 X-4.525 Y9.233 Z0.103 E1.6703
G1 X-4.358 Y8.875 Z0.104 E1.6846
G1 X-4.089 Y8.465 Z0.104 E1.7025
G1 X-3.748 Y8.064 Z0.105 E1.7218
G1 X-2.866 Y7.170 Z0.106 E1.7682
G1 X-2.694 Y6.963 Z0.108 E1.7781
G1 X-2.523 Y6.699 Z0.109 E1.7898
G1 X-2.447 Y6.539 Z0.110 E1.7963
G1 X-2.366 Y6.279 Z0.110 E1.8065
G1 X-2.334 Y6.068 Z0.110 E1.8144
G1 X-2.330 Y5.838 Z0.111 E1.8230
G1 X-2.365 Y5.619 Z0.111 E1.8313
G1 X-2.407 Y5.494 Z0.112 E1.8362
G1 X-2.484 Y5.342 Z0.112 E1.8425
G1 X-2.591 Y5.200 Z0.112 E1.8492
G1 X-2.808 Y5.022 Z0.113 E1.8597
G1 X-3.034 Y4.916 Z0.113 E1.8691
G1 X-3.331 Y4.845 Z0.114 E1.8806
G1 X-3.606 Y4.818 Z0.114 E1.8910
G1 X-3.970 Y4.821 Z0.115 E1.9047
G1 X-4.263 Y4.850 Z0.115 E1.9159
G1 X-5.039 Y4.980 Z0.116 E1.9458
G1 X-5.451 Y5.032 Z0.117 E1.9616
G1 X-6.059 Y5.057 Z0.118 E1.9849
G1 X-7.047 Y4.997 Z0.119 E2.0230
G1 X-7.494 Y4.945 Z0.121 E2.0403
G1 X-8.122 Y4.840 Z0.122 E2.0650
G1 X-8.438 Y4.763 Z0.123 E2.0776
G1 X-8.818 Y4.640 Z0.124 E2.0931
G1 X-9.143 Y4.504 Z0.124 E2.1069
G1 X-9.445 Y4.351 Z0.125 E2.1201
G1 X-9.746 Y4.159 Z0.126 E2.1341
G1 X-9.924 Y4.007 Z0.126 E2.1432
G1 X-9.998 Y3.910 Z0.127 E2.1480
G1 X-10.034 Y3.828 Z0.127 E2.1515
G1 X-10.037 Y3.753 Z0.127 E2.1545
G1 X-10.036 Y3.747 Z0.127 E2.1547
G1 X-9.992 Y3.654 Z0.127 E2.1588
G1 X-9.935 Y3.584 Z0.127 E2.1623
G1 X-9.780 Y3.460 Z0.128 E2.1701
G1 X-9.663 Y3.392 Z0.128 E2.1755
G1 X-9.459 Y3.301 Z0.128 E2.1843
G1 X-9.056 Y3.181 Z0.129 E2.2009
G1 X-8.551 Y3.107 Z0.129 E2.2211
G1 X-8.130 Y3.087 Z0.130 E2.2379
G1 X-6.971 Y3.088 Z0.131 E2.2843
G1 X-6.503 Y3.022 Z0.133 E2.3032
G1 X-6.164 Y2.888 Z0.134 E2.3179
G1 X-5.947 Y2.749 Z0.135 E2.3283
G1 X-5.681 Y2.505 Z0.135 E2.3428
G1 X-5.496 Y2.238 Z0.136 E2.3560
G1 X-5.402 Y1.951 Z0.137 E2.3682
G1 X-5.415 Y1.659 Z0.137 E2.3801
G1 X-5.461 Y1.507 Z0.138 E2.3865
G1 X-5.564 Y1.294 Z0.138 E2.3961
G1 X-5.737 Y1.047 Z0.138 E2.4084
G1 X-5.960 Y0.798 Z0.139 E2.4220
G1 X-6.158 Y0.614 Z0.140 E2.4331
G1 X-6.446 Y0.382 Z0.140 E2.4482
G1 X-7.222 Y-0.187 Z0.141 E2.4878
G1 X-7.551 Y-0.471 Z0.143 E2.5058
G1 X-7.749 Y-0.663 Z0.143 E2.5172
G1 X-7.991 Y-0.919 Z0.144 E2.5318
G1 X-8.392 Y-1.384 Z0.145 E2.5573
G1 X-8.738 Y-1.819 Z0.146 E2.5804
G1 X-9.057 Y-2.271 Z0.147 E2.6036
G1 X-9.365 Y-2.807 Z0.148 E2.6295
G1 X-9.494 Y-3.094 Z0.149 E2.6428
G1 X-9.606 Y-3.393 Z0.150 E2.6562
G1 X-9.703 Y-3.740 Z0.150 E2.6714
G1 X-9.752 Y-4.031 Z0.151 E2.6839
G1 X-9.754 Y-4.179 Z0.151 E2.6902
G1 X-9.728 Y-4.308 Z0.152 E2.6957
G1 X-9.713 Y-4.341 Z0.152 E2.6973
G1 X-9.673 Y-4.386 Z0.152 E2.6998
G1 X-9.564 Y-4.441 Z0.152 E2.7050
G1 X-9.514 Y-4.451 Z0.152 E2.7072
G1 X-9.349 Y-4.450 Z0.152 E2.7141
G1 X-9.282 Y-4.439 Z0.153 E2.7170
G1 X-9.125 Y-4.397 Z0.153 E2.7239
G1 X-8.944 Y-4.326 Z0.153 E2.7322
G1 X-8.629 Y-4.160 Z0.153 E2.7474
G1 X-8.254 Y-3.895 Z0.154 E2.7670
G1 X-7.903 Y-3.591 Z0.155 E2.7869
G1 X-7.250 Y-2.939 Z0.156 E2.8266
G1 X-7.099 Y-2.791 Z0.158 E2.8357
G1 X-6.788 Y-2.530 Z0.158 E2.8532
G1 X-6.525 Y-2.366 Z0.159 E2.8666
G1 X-6.324 Y-2.279 Z0.159 E2.8761
G1 X-6.135 Y-2.225 Z0.160 E2.8846
G1 X-5.848 Y-2.189 Z0.160 E2.8972
G1 X-5.574 Y-2.205 Z0.161 E2.9091
G1 X-5.361 Y-2.263 Z0.161 E2.9187
G1 X-5.214 Y-2.336 Z0.161 E2.9259
G1 X-5.052 Y-2.460 Z0.162 E2.9348
G1 X-4.949 Y-2.572 Z0.162 E2.9414
G1 X-4.807 Y-2.812 Z0.162 E2.9536
G1 X-4.704 Y-3.190 Z0.163 E2.9708
G1 X-4.678 Y-3.455 Z0.164 E2.9824
G1 X-4.676 Y-3.772 Z0.164 E2.9963
G1 X-4.714 Y-4.158 Z0.165 E3.0134
G1 X-4.874 Y-5.154 Z0.165 E3.0581
G1 X-4.911 Y-5.619 Z0.167 E3.0788
G1 X-4.915 Y-5.867 Z0.168 E3.0898
G1 X-4.887 Y-6.546 Z0.169 E3.1201
G1 X-4.770 Y-7.588 Z0.170 E3.1671
G1 X-4.704 Y-7.963 Z0.172 E3.1842
G1 X-4.586 Y-8.427 Z0.173 E3.2057
G1 X-4.466 Y-8.765 Z0.173 E3.2219
G1 X-4.342 Y-9.051 Z0.174 E3.2360
G1 X-4.168 Y-9.382 Z0.175 E3.2529
G1 X-4.014 Y-9.620 Z0.175 E3.2657
G1 X-3.901 Y-9.750 Z0.176 E3.2736
G1 X-3.756 Y-9.864 Z0.176 E3.2819
G1 X-3.694 Y-9.891 Z0.177 E3.2850
G1 X-3.638 Y-9.899 Z0.177 E3.2876
G1 X-3.619 Y-9.897 Z0.177 E3.2884
G1 X-3.519 Y-9.857 Z0.177 E3.2934
G1 X-3.470 Y-9.822 Z0.177 E3.2961
G1 X-3.361 Y-9.710 Z0.177 E3.3032
G1 X-3.265 Y-9.564 Z0.177 E3.3112
G1 X-3.213 Y-9.455 Z0.178 E3.3167
G1 X-3.143 Y-9.284 Z0.178 E3.3251
G1 X-3.064 Y-9.028 Z0.178 E3.3373
G1 X-2.994 Y-8.664 Z0.179 E3.3543
G1 X-2.951 Y-8.157 Z0.180 E3.3777
G1 X-2.950 Y-6.882 Z0.180 E3.4366
G1 X-2.925 Y-6.577 Z0.183 E3.4507
G1 X-2.848 Y-6.250 Z0.183 E3.4663
G1 X-2.687 Y-5.920 Z0.184 E3.4833
G1 X-2.524 Y-5.704 Z0.185 E3.4959
G1 X-2.375 Y-5.553 Z0.185 E3.5058
G1 X-2.222 Y-5.432 Z0.186 E3.5148
G1 X-1.987 Y-5.308 Z0.186 E3.5272
G1 X-1.687 Y-5.256 Z0.186 E3.5415
